X:690
T:Bourre lo Codretto
M:3/8
O:France
R:Bourre
Z:Richard Robinson 
%%TUNEURL: http://www.leeds.ac.uk/music/Info/RRTuneBk/gettune/00000b47.html
%%ID:00000b47
K:C
G2c2d2| e4e2| fed2c2| e4d2| G2c2d2| e4e2| fed2c2| d4:|
|:G2| c4d2| cBA2G2| A4B2| A2G2G2| c4d2 | cBA2G2| A2B2G2| c4:|
